images/Path (1).svg

<svg width="20" height="16" viewBox="0 0 20 16" fill="none" xmlns="http://www.w3.org/2000/svg">
<path d="M19.5556 1.881C18.8283 2.2 18.0534 2.41144 17.2456 2.51411C18.0767 2.01789 18.711 1.23811 19.0092 0.298222C18.2343 0.760222 17.3788 1.08656 16.467 1.26867C15.7312 0.485222 14.6826 0 13.5386 0C11.319 0 9.53211 1.80156 9.53211 4.01011C9.53211 4.32789 9.559 4.63344 9.625 4.92433C6.292 4.76178 3.34278 3.16433 1.36156 0.730889C1.01567 1.331 0.812778 2.01789 0.812778 2.75733C0.812778 4.14578 1.52778 5.37656 2.59356 6.08911C1.94944 6.07689 1.31756 5.88989 0.782222 5.59533C0.782222 5.60756 0.782222 5.62344 0.782222 5.63933C0.782222 7.58756 2.17189 9.20578 3.99422 9.57856C3.66789 9.66778 3.31222 9.71056 2.94311 9.71056C2.68644 9.71056 2.42733 9.69589 2.18411 9.64211C2.70356 11.2298 4.17756 12.397 5.93022 12.4349C4.56622 13.5019 2.83433 14.1448 0.959444 14.1448C0.630667 14.1448 0.315333 14.1301 0 14.0898C1.77589 15.235 3.88056 15.8889 6.15022 15.8889C13.5276 15.8889 17.5609 9.77778 17.5609 4.48067C17.5609 4.30344 17.5548 4.13233 17.5462 3.96244C18.3419 3.39778 19.0104 2.69256 19.5556 1.881Z" fill="#1E2833" style="fill:#1E2833;fill:color(display-p3 0.1176 0.1569 0.2000);fill-opacity:1;"/>
</svg>

<svg xmlns="http://www.w3.org/2000/svg" width="20" height="16" fill="none"><path fill="#1E2833" d="M19.556 1.881a8.4 8.4 0 0 1-2.31.633A4 4 0 0 0 19.009.298a8 8 0 0 1-2.542.97A4.008 4.008 0 0 0 9.532 4.01c0 .319.027.624.093.915A11.35 11.35 0 0 1 1.362.731a4.04 4.04 0 0 0-.55 2.026c0 1.389.716 2.62 1.782 3.332a3.96 3.96 0 0 1-1.812-.494v.044a4.03 4.03 0 0 0 3.212 3.94c-.326.089-.682.132-1.05.132-.258 0-.517-.015-.76-.069.52 1.588 1.994 2.755 3.746 2.793a8.06 8.06 0 0 1-4.97 1.71c-.33 0-.645-.015-.96-.055a11.3 11.3 0 0 0 6.15 1.799c7.378 0 11.41-6.111 11.41-11.408q0-.265-.014-.519a8 8 0 0 0 2.01-2.081" style="fill:#1e2833;fill:color(display-p3 .1176 .1569 .2);fill-opacity:1"/></svg>
